small/extra/apps/standard/kiten.svg

<?xml version="1.0" encoding="UTF-8" standalone="no"?>
<!-- Created with Inkscape (http://www.inkscape.org/) -->
<svg id="svg2" xmlns:rdf="http://www.w3.org/1999/02/22-rdf-syntax-ns#" xmlns="http://www.w3.org/2000/svg" height="100%" width="100%" version="1.1" xmlns:cc="http://creativecommons.org/ns#" viewBox="0 0 512 512" xmlns:dc="http://purl.org/dc/elements/1.1/">
 <metadata id="metadata10">
  <rdf:RDF>
   <cc:Work rdf:about="">
    <dc:format>image/svg+xml</dc:format>
    <dc:type rdf:resource="http://purl.org/dc/dcmitype/StillImage"/>
    <dc:title/>
   </cc:Work>
  </rdf:RDF>
 </metadata>
 <path id="rect2986" fill="#fff" d="m26 0c-14.397 0-26 11.603-26 26v460c0 14.397 11.603 26 26 26h460c14.397 0 26-11.603 26-26v-460c0-14.397-11.6-26-26-26h-460z"/>
 <path id="path3333" opacity=".25" style="block-progression:tb;text-indent:0;color:#000000;text-transform:none" d="m406.81 102.72c-302.04 13.29-150.69 157.21-303.47 304.22l104.85 105.06h277.81c14.397 0 26-11.603 26-26v-278.22l-105.19-105.06z"/>
 <g id="g3119" transform="matrix(3.3369 0 0 3.3369 -348.05 -633.46)">
  <path id="path3069" fill="#c50e0e" d="m245.45 266.55a64.431 64.431 0 1 1 -128.86 0 64.431 64.431 0 1 1 128.86 0z"/>
 </g>
</svg>

<?xml version="1.0" encoding="UTF-8" standalone="no"?>
<!-- Created with Inkscape (http://www.inkscape.org/) -->

<svg
   xmlns:dc="http://purl.org/dc/elements/1.1/"
   xmlns:cc="http://creativecommons.org/ns#"
   xmlns:rdf="http://www.w3.org/1999/02/22-rdf-syntax-ns#"
   xmlns:svg="http://www.w3.org/2000/svg"
   xmlns="http://www.w3.org/2000/svg"
   xmlns:sodipodi="http://sodipodi.sourceforge.net/DTD/sodipodi-0.dtd"
   xmlns:inkscape="http://www.inkscape.org/namespaces/inkscape"
   id="svg2"
   height="100%"
   width="100%"
   version="1.1"
   viewBox="0 0 512 512"
   inkscape:version="0.91 r13725"
   sodipodi:docname="kiten.svg">
  <defs
     id="defs10" />
  <sodipodi:namedview
     pagecolor="#ffffff"
     bordercolor="#666666"
     borderopacity="1"
     objecttolerance="10"
     gridtolerance="10"
     guidetolerance="10"
     inkscape:pageopacity="0"
     inkscape:pageshadow="2"
     inkscape:window-width="640"
     inkscape:window-height="480"
     id="namedview8"
     showgrid="false"
     inkscape:zoom="0.5546875"
     inkscape:cx="36.056338"
     inkscape:cy="240.67606"
     inkscape:current-layer="svg2" />
  <metadata
     id="metadata10">
    <rdf:RDF>
      <cc:Work
         rdf:about="">
        <dc:format>image/svg+xml</dc:format>
        <dc:type
           rdf:resource="http://purl.org/dc/dcmitype/StillImage" />
        <dc:title />
      </cc:Work>
    </rdf:RDF>
  </metadata>
  <path
     inkscape:connector-curvature="0"
     style="fill:#ffffff"
     id="rect2986"
     d="M 26,0 C 11.603,0 0,11.603 0,26 l 0,460 c 0,14.397 11.603,26 26,26 l 460,0 c 14.397,0 26,-11.603 26,-26 L 512,26 C 512,11.603 500.4,0 486,0 L 26,0 Z" />
  <path
     inkscape:connector-curvature="0"
     id="path3333"
     style="color:#000000;text-indent:0;text-transform:none;block-progression:tb;opacity:0.25"
     d="M 406.81,102.72 C 104.77,116.01 256.12,259.93 103.34,406.94 L 208.19,512 486,512 c 14.397,0 26,-11.603 26,-26 L 512,207.78 406.81,102.72 Z" />
  <g
     id="g3119"
     transform="matrix(3.3369,0,0,3.3369,-348.05,-633.46)">
    <path
       style="fill:#c50e0e"
       inkscape:connector-curvature="0"
       id="path3069"
       d="m 245.45,266.55 a 64.431,64.431 0 1 1 -128.86,0 64.431,64.431 0 1 1 128.86,0 z" />
  </g>
</svg>
